X: 1
T: WALK AROUND. -- GWINE TO DE SHOW.
B: Ryan's Mammoth Collection of Fiddle Tunes
R: walkaround
M: 2/4
L: 1/16
Z: Contributed 20071129 by John Chambers jc:jc.tzo.net
K: Amix
!f!(6:6ABcdef !Segno!|: \
!mf!vf2f2 z2uf2 | z2f2z2vf2- | f2c2d2B2 | A2G2F2E2 |
D2f2 z2f2 | z2f2z2f2 | f2e2f2^g2 |1 a3A Bcde :|2 a6 |]
ved |\
"dance"\
cBAc BA^GB | ABcd efga | cBAc BA^GB | cedB A2E2 |
cBAc BA^GB | ABcd efga | cBAc BAGB | cedB A2z2 !Segno!|] \
"break"vc2ee e2e2 | ea^gb [a4c4] H|]
